main/images/icons/techpage/slack.svg

<?xml version="1.0" encoding="iso-8859-1"?>
<!-- Generator: Adobe Illustrator 16.0.0, SVG Export Plug-In . SVG Version: 6.00 Build 0)  -->
<!DOCTYPE svg PUBLIC "-//W3C//DTD SVG 1.1//EN" "http://www.w3.org/Graphics/SVG/1.1/DTD/svg11.dtd">
<svg xmlns="http://www.w3.org/2000/svg" xmlns:xlink="http://www.w3.org/1999/xlink" version="1.1" id="Capa_1" x="0px" y="0px" width="512px" height="512px" viewBox="0 0 31.444 31.443" style="enable-background:new 0 0 31.444 31.443;" xml:space="preserve">
<g>
	<path d="M31.202,16.369c-0.62-1.388-2.249-2.011-3.637-1.391l-1.325,0.594l-3.396-7.591l1.325-0.592   c1.388-0.622,2.01-2.25,1.389-3.637c-0.62-1.389-2.248-2.012-3.637-1.39l-1.324,0.593l-0.593-1.326   c-0.621-1.388-2.249-2.009-3.637-1.388c-1.388,0.62-2.009,2.247-1.389,3.637l0.593,1.325L7.98,8.598L7.388,7.273   c-0.621-1.39-2.249-2.009-3.637-1.39C2.363,6.504,1.742,8.132,2.362,9.52l0.592,1.324L1.63,11.438   c-1.388,0.621-2.01,2.247-1.389,3.636c0.62,1.388,2.249,2.01,3.637,1.39l1.325-0.594l3.394,7.592l-1.325,0.592   c-1.388,0.621-2.009,2.25-1.389,3.637c0.621,1.389,2.249,2.011,3.637,1.391l1.324-0.593l0.593,1.325   c0.621,1.389,2.249,2.01,3.637,1.389c1.387-0.62,2.009-2.248,1.388-3.636l-0.591-1.326l7.591-3.394l0.592,1.321   c0.621,1.391,2.248,2.013,3.637,1.392c1.388-0.619,2.01-2.248,1.389-3.637l-0.592-1.324l1.323-0.594   C31.201,19.384,31.823,17.757,31.202,16.369z M13.623,21.215l-3.395-7.593l7.591-3.394l3.395,7.591L13.623,21.215z" fill="#4be4c4"/>
</g>
<g>
</g>
<g>
</g>
<g>
</g>
<g>
</g>
<g>
</g>
<g>
</g>
<g>
</g>
<g>
</g>
<g>
</g>
<g>
</g>
<g>
</g>
<g>
</g>
<g>
</g>
<g>
</g>
<g>
</g>
</svg>

<?xml version="1.0" encoding="UTF-8"?>
<svg width="32px" height="32px" viewBox="0 0 32 32" version="1.1" xmlns="http://www.w3.org/2000/svg" xmlns:xlink="http://www.w3.org/1999/xlink">
    <!-- Generator: Sketch 46.2 (44496) - http://www.bohemiancoding.com/sketch -->
    <title>slack</title>
    <desc>Created with Sketch.</desc>
    <defs></defs>
    <g id="Page-1" stroke="none" stroke-width="1" fill="none" fill-rule="evenodd">
        <g id="slack" fill-rule="nonzero" fill="#4BE4C4">
            <path d="M31.202,16.369 C30.582,14.981 28.953,14.358 27.565,14.978 L26.24,15.572 L22.844,7.981 L24.169,7.389 C25.557,6.767 26.179,5.139 25.558,3.752 C24.938,2.363 23.31,1.74 21.921,2.362 L20.597,2.955 L20.004,1.629 C19.383,0.241 17.755,-0.38 16.367,0.241 C14.979,0.861 14.358,2.488 14.978,3.878 L15.571,5.203 L7.98,8.598 L7.388,7.273 C6.767,5.883 5.139,5.264 3.751,5.883 C2.363,6.504 1.742,8.132 2.362,9.52 L2.954,10.844 L1.63,11.438 C0.242,12.059 -0.38,13.685 0.241,15.074 C0.861,16.462 2.49,17.084 3.878,16.464 L5.203,15.87 L8.597,23.462 L7.272,24.054 C5.884,24.675 5.263,26.304 5.883,27.691 C6.504,29.08 8.132,29.702 9.52,29.082 L10.844,28.489 L11.437,29.814 C12.058,31.203 13.686,31.824 15.074,31.203 C16.461,30.583 17.083,28.955 16.462,27.567 L15.871,26.241 L23.462,22.847 L24.054,24.168 C24.675,25.559 26.302,26.181 27.691,25.56 C29.079,24.941 29.701,23.312 29.08,21.923 L28.488,20.599 L29.811,20.005 C31.201,19.384 31.823,17.757 31.202,16.369 Z M13.623,21.215 L10.228,13.622 L17.819,10.228 L21.214,17.819 L13.623,21.215 Z" id="Shape"></path>
        </g>
    </g>
</svg>
